X: 2
T: Glasgow's Passion For Fashion
M: 6/8
L: 1/8
R: jig
K: Gmaj
|: d2 G |\
B2 B BAG | B2 d g2 d | efg d2 G | A3 D2 G |
B>cB BAG | Bcd g2 d | e2 g f<af | g3 :|
|: d2 g |\
b2 b agf | g2 e d2 B | c>de d2 G |
[1 A3 g2 a | b2 b agf | g2 g dcB | c2 e d<gf | g3 :|
[2 A3 d2 c | B2 B BAG | B2 d g2 d | e2 g f<af | g3 ||
